X:1
T: The Dyer's Frolic
C:Bruce Shawyer
R:Strathspey
Q:128
K:D
M:4/4
L:1/16
|:A2|FA3 D3D D4 E3D|CE3 A,3A, A,4 A3G|FA3 D3D D4 F3A|Bd3 ce3 d3B A3G|
FA3 D3D D4 E3D|CE3 A,3A, A,4 A3G|FGA2 F3D EFG2 E3C|D4 D3D D4 d3e|
f4 f3d e3c A3c|d3e f3d e3d c3A|Bd3 ce3 df3 e3d|c4 A3A A4 d3e|
f3e f3d e3c A3c|d3e f3d e3d c3A|(3Bcd c3e d3B A3G|F4 D3D D6:|
